2 Export/Icons/Brands/Skype.svg

<svg xmlns="http://www.w3.org/2000/svg" xmlns:xlink="http://www.w3.org/1999/xlink" width="24" height="24" viewBox="0 0 24 24">
  <defs>
    <path id="skype-a" d="M12.02775,17.1555 C9.0105,17.1555 7.66275,15.67125 7.66275,14.5575 C7.66275,13.98375 8.0835,13.5855 8.6625,13.5855 C9.95475,13.5855 9.61725,15.44325 12.02775,15.44325 C13.2585,15.44325 13.94025,14.772 13.94025,14.085 C13.94025,13.67175 13.7385,13.215 12.92475,13.01325 L10.24275,12.342 C8.08275,11.799 7.6905,10.6275 7.6905,9.52875 C7.6905,7.2435 9.83625,6.3855 11.85225,6.3855 C13.7055,6.3855 15.897,7.41525 15.897,8.78475 C15.897,9.37275 15.381,9.71475 14.80725,9.71475 C13.7055,9.71475 13.90875,8.187 11.68425,8.187 C10.5825,8.187 9.96525,8.685 9.96525,9.39975 C9.96525,10.1145 10.83,10.34325 11.583,10.515 L13.56075,10.95525 C15.729,11.442 16.27875,12.71475 16.27875,13.91325 C16.27875,15.77025 14.85225,17.15625 11.98725,17.15625 M20.30025,13.49475 L20.2785,13.596 L20.2455,13.416 C20.25675,13.44975 20.2785,13.4715 20.28975,13.506 C20.37975,12.99975 20.4255,12.48375 20.4255,11.967 C20.4255,10.82025 20.19975,9.708 19.752,8.652 C19.32525,7.641 18.70575,6.7305 17.93175,5.955 C17.145,5.18025 16.2465,4.563 15.2355,4.1355 C14.247,3.66225 13.13475,3.438 11.9895,3.438 C11.4495,3.438 10.9065,3.4905 10.38225,3.591 L10.4715,3.636 L10.29225,3.61125 L10.3815,3.5925 C9.6585,3.2055 8.84775,3 8.02425,3 C6.6825,3 5.42175,3.5235 4.47225,4.47525 C3.52275,5.42625 3,6.69225 3,8.037 C3,8.89425 3.219,9.73575 3.633,10.4805 L3.648,10.3875 L3.67875,10.56675 L3.63375,10.4805 C3.54825,10.96425 3.50475,11.45475 3.50475,11.94675 C3.50475,13.09425 3.72975,14.2095 4.16775,15.25875 C4.59375,16.28025 5.20125,17.19075 5.988,17.9655 C6.7635,18.753 7.67325,19.35825 8.68425,19.797 C9.72975,20.247 10.842,20.4705 11.98725,20.4705 C12.4815,20.4705 12.98775,20.4255 13.47,20.33625 L13.38075,20.28975 L13.56075,20.32425 L13.4595,20.34675 C14.211,20.7735 15.054,21 15.93,21 C17.26725,21 18.52425,20.4825 19.47975,19.52775 C20.424,18.5835 20.95125,17.3145 20.95125,15.966 C20.95125,15.1125 20.727,14.2695 20.3115,13.5165"/>
  </defs>
  <g fill="none" fill-rule="evenodd">
    <polygon points="0 0 24 0 24 24 0 24"/>
    <mask id="skype-b" fill="#fff">
      <use xlink:href="#skype-a"/>
    </mask>
    <use fill="#000" xlink:href="#skype-a"/>
    <g fill="#000" mask="url(#skype-b)">
      <rect width="24" height="24"/>
    </g>
  </g>
</svg>

<svg xmlns="http://www.w3.org/2000/svg" xmlns:xlink="http://www.w3.org/1999/xlink" width="24" height="24" viewBox="0 0 24 24">
  <defs>
    <path id="skype-a" d="M12.028 17.155c-3.018 0-4.365-1.484-4.365-2.598 0-.573.42-.972 1-.972 1.292 0 .954 1.858 3.365 1.858 1.23 0 1.912-.671 1.912-1.358 0-.413-.201-.87-1.015-1.072l-2.682-.671c-2.16-.543-2.553-1.715-2.553-2.813 0-2.285 2.146-3.143 4.162-3.143 1.854 0 4.045 1.03 4.045 2.399 0 .588-.516.93-1.09.93-1.101 0-.898-1.528-3.123-1.528-1.101 0-1.719.498-1.719 1.213 0 .714.865.943 1.618 1.115l1.978.44c2.168.487 2.718 1.76 2.718 2.958 0 1.857-1.427 3.243-4.292 3.243m8.313-3.661l-.021.101-.034-.18c.012.034.034.056.045.09.09-.506.136-1.022.136-1.539a8.49 8.49 0 0 0-2.494-6.012 8.611 8.611 0 0 0-2.696-1.82c-.989-.473-2.101-.697-3.247-.697a8.53 8.53 0 0 0-1.607.153l.09.045-.18-.025.09-.019a5 5 0 0 0-5.91.883A5.01 5.01 0 0 0 3 8.037c0 .857.219 1.699.633 2.443l.015-.093.03.18-.044-.087a8.558 8.558 0 0 0 .534 4.778 8.197 8.197 0 0 0 1.82 2.707 8.494 8.494 0 0 0 2.696 1.832 8.305 8.305 0 0 0 3.303.674c.495 0 1-.046 1.483-.135l-.09-.046.18.034-.1.023a4.981 4.981 0 0 0 2.47.653 4.98 4.98 0 0 0 3.55-1.472 5.013 5.013 0 0 0 1.471-3.562 5.08 5.08 0 0 0-.64-2.45"/>
  </defs>
  <g fill="none" fill-rule="evenodd">
    <polygon points="0 0 24 0 24 24 0 24"/>
    <mask id="skype-b" fill="#fff">
      <use xlink:href="#skype-a"/>
    </mask>
    <use fill="#000" xlink:href="#skype-a"/>
    <g fill="#000" mask="url(#skype-b)">
      <rect width="24" height="24"/>
    </g>
  </g>
</svg>
